sprites/streets-v8/_svg/lodging-11.svg

<svg viewBox="-4 -4 19 19" width="19" height="19" data-reactid=".0.1.1.$lodging-11=1svg50.0.0"><rect x="-3" y="-3" rx="8.5" ry="8.5" width="17" height="17" stroke="#fff" style="stroke-linejoin:round;stroke-miterlimit:4px;" fill="#fff" stroke-width="2" data-reactid=".0.1.1.$lodging-11=1svg50.0.0.0"></rect><rect x="-3" y="-3" width="17" height="17" rx="8.5" ry="8.5" fill="#7f7874" data-reactid=".0.1.1.$lodging-11=1svg50.0.0.1"></rect><path fill="#fff" d="M 0.5 2 C 0.223 2 0 2.223 0 2.5 L 0 7.5 L 0 8.5 C 0 8.777 0.223 9 0.5 9 C 0.777 9 1 8.777 1 8.5 L 1 8 L 10 8 L 10 8.5 C 10 8.777 10.223 9 10.5 9 C 10.777 9 11 8.777 11 8.5 L 11 7.5 C 11 7.223 10.777 7 10.5 7 L 1 7 L 1 2.5 C 1 2.223 0.777 2 0.5 2 z M 2.5 2 A 1 1 0 0 0 1.5 3 A 1 1 0 0 0 2.5 4 A 1 1 0 0 0 3.5 3 A 1 1 0 0 0 2.5 2 z M 5 3 C 4 3 4 4 4 4 L 4 5 L 2 5 C 1.723 5 1.5 5.223 1.5 5.5 C 1.5 5.777 1.723 6 2 6 L 4.5 6 L 11 6 L 11 5 C 11 3 9 3 9 3 L 5 3 z " data-reactid=".0.1.1.$lodging-11=1svg50.0.0.3:$lodging-11=1svg-0-fill"></path></svg>

<?xml version="1.0" encoding="utf-8"?>
<!-- Generator: Adobe Illustrator 17.1.0, SVG Export Plug-In . SVG Version: 6.00 Build 0)  -->
<!DOCTYPE svg PUBLIC "-//W3C//DTD SVG 1.1//EN" "http://www.w3.org/Graphics/SVG/1.1/DTD/svg11.dtd">
<svg version="1.1"
	 id="svg2" xmlns:svg="http://www.w3.org/2000/svg" xmlns:cc="http://creativecommons.org/ns#" xmlns:dc="http://purl.org/dc/elements/1.1/" xmlns:rdf="http://www.w3.org/1999/02/22-rdf-syntax-ns#"
	 xmlns="http://www.w3.org/2000/svg" xmlns:xlink="http://www.w3.org/1999/xlink" x="0px" y="0px" width="19px" height="19px"
	 viewBox="0 0 19 19" enable-background="new 0 0 19 19" xml:space="preserve">
<ellipse id="ellipse4" fill="#FFFFFF" cx="9.5" cy="9.5" rx="9.5" ry="9.5"/>
<ellipse id="ellipse6" fill="#A9A199" cx="9.5" cy="9.5" rx="8.5" ry="8.5"/>
<g id="g8" transform="translate(4,4)">
	<path id="rect6430" fill="#FFFFFF" d="M0.5,2C0.2,2,0,2.2,0,2.5v5v1C0,8.8,0.2,9,0.5,9S1,8.8,1,8.5V8h9v0.5C10,8.8,10.2,9,10.5,9
		S11,8.8,11,8.5v-1C11,7.2,10.8,7,10.5,7H1V2.5C1,2.2,0.8,2,0.5,2z M2.5,2c-0.6,0-1,0.4-1,1s0.4,1,1,1s1-0.4,1-1S3.1,2,2.5,2z M5,3
		C4,3,4,4,4,4v1H2C1.7,5,1.5,5.2,1.5,5.5S1.7,6,2,6h2.5H11V5c0-2-2-2-2-2H5z"/>
</g>
</svg>
